img/big-logo.svg

<svg width="324" height="88" viewBox="0 0 324 88" fill="none" xmlns="http://www.w3.org/2000/svg">
<path d="M73.116 51.0213L76.8383 52.6378L75.7748 50.7966L73.654 47.1331L72.4854 45.0985L70.8777 42.3149L69.2701 45.0985L68.0953 47.1331L65.9744 50.7966L64.9171 52.6378L68.6332 51.0213L70.8777 55.4962L73.116 51.0213Z" fill="#3C2829"/>
<path d="M104.626 67.5103C104.626 67.3356 104.626 67.1671 104.626 66.9923C104.626 66.9361 104.626 66.88 104.626 66.8238C104.626 66.649 104.576 66.4805 104.545 66.312C104.545 66.2559 104.545 66.1934 104.514 66.1373C104.514 65.9812 104.44 65.8252 104.397 65.6754C104.354 65.5256 104.36 65.5319 104.335 65.4632C104.31 65.3946 104.242 65.2011 104.193 65.07C104.143 64.939 104.131 64.9015 104.094 64.8142C104.057 64.7268 103.989 64.5832 103.933 64.4709L103.791 64.2025L103.742 64.1027L76.8755 17.2068C76.8597 17.187 76.8452 17.1662 76.8323 17.1444C76.6942 16.9041 76.5414 16.6727 76.3747 16.4516C76.2089 16.2321 76.0292 16.0236 75.8368 15.8275L75.7378 15.7276C75.5544 15.5455 75.3603 15.3746 75.1566 15.2159L75.101 15.1722C73.8978 14.241 72.4249 13.7344 70.9088 13.7305C70.613 13.7324 70.3177 13.7532 70.0246 13.7929C68.8412 13.9505 67.7185 14.4149 66.766 15.141L66.6733 15.2159C66.4834 15.366 66.3018 15.5264 66.1291 15.6964L66.0117 15.815C65.8327 15.9994 65.6635 16.1932 65.5046 16.3954C65.4848 16.4133 65.4681 16.4344 65.4552 16.4578C65.2886 16.6746 65.1358 16.9019 64.9976 17.1381L64.9543 17.2068L50.2136 42.9827C49.7301 43.7744 49.409 44.6559 49.2692 45.5752C49.1293 46.4944 49.1736 47.4326 49.3994 48.3342C49.6252 49.2359 50.0279 50.0826 50.5836 50.8244C51.1394 51.5661 51.837 52.1878 52.635 52.6526C53.4331 53.1174 54.3154 53.4158 55.2298 53.5303C56.1442 53.6447 57.072 53.5728 57.9583 53.3189C58.8447 53.0649 59.6716 52.6341 60.39 52.0518C61.1084 51.4696 61.7038 50.7477 62.141 49.929L70.9211 34.5821L85.8165 60.6264H32.0226L51.611 26.4873C52.5244 24.89 52.7717 22.9919 52.2986 21.2105C51.8255 19.4291 50.6707 17.9103 49.0882 16.9883C47.5057 16.0664 45.6252 15.8167 43.8603 16.2942C42.0954 16.7718 40.5908 17.9374 39.6774 19.5347L14.1098 64.1089C14.1098 64.1089 14.1098 64.1651 14.0665 64.1963C14.0233 64.2275 13.9552 64.421 13.8996 64.5333C13.8439 64.6456 13.8068 64.7143 13.7636 64.8079C13.7203 64.9015 13.6708 65.0513 13.6213 65.1761L13.5224 65.4445C13.4853 65.5756 13.4482 65.7004 13.4173 65.8315C13.3864 65.9625 13.3678 66.0125 13.3493 66.1061C13.3307 66.1997 13.2998 66.3682 13.2813 66.4993C13.2627 66.6303 13.2813 66.6865 13.238 66.7801C13.1947 66.8737 13.238 67.0485 13.238 67.1795C13.238 67.3106 13.238 67.3668 13.238 67.4604C13.238 67.554 13.238 67.5415 13.238 67.5852C13.238 67.6289 13.238 67.7974 13.238 67.9035C13.238 68.0096 13.238 68.0533 13.238 68.1344C13.238 68.2156 13.2751 68.459 13.2998 68.6212C13.2963 68.6753 13.2963 68.7295 13.2998 68.7835C13.3307 68.9583 13.3678 69.1268 13.4111 69.2953C13.4111 69.3452 13.4111 69.3889 13.4111 69.4326C13.4606 69.6011 13.51 69.7634 13.5657 69.9256C13.5836 69.9807 13.6042 70.0349 13.6275 70.0879C13.6832 70.2315 13.745 70.375 13.8068 70.5186L13.912 70.7245C13.9676 70.8442 14.0295 70.9609 14.0975 71.074L14.2582 71.3424L14.4313 71.5983C14.5055 71.7106 14.5859 71.8105 14.6663 71.9166L14.8271 72.11L15.1115 72.4283L15.2784 72.5906C15.3836 72.6905 15.4887 72.7903 15.6 72.8839L15.804 73.0525L16.1132 73.2834L16.41 73.4768C16.4917 73.5334 16.5763 73.5855 16.6635 73.6329C16.9018 73.7692 17.1475 73.8922 17.3993 74.0011H17.4549C17.6897 74.0964 17.9291 74.1797 18.1722 74.2508L18.3824 74.3007C18.5859 74.3545 18.7924 74.3962 19.0007 74.4255L19.2233 74.4629C19.488 74.4951 19.7544 74.5118 20.021 74.5129H97.7748C98.0393 74.512 98.3036 74.4953 98.5662 74.4629L98.795 74.4255C98.9991 74.4255 99.2031 74.3506 99.4133 74.3007L99.6112 74.2508C99.8678 74.1793 100.12 74.0918 100.366 73.9886C100.622 73.8811 100.872 73.7581 101.114 73.6204L101.38 73.4581C101.466 73.402 101.559 73.3458 101.652 73.2771C101.768 73.1994 101.88 73.1139 101.986 73.0212C102.041 72.9776 102.097 72.9401 102.152 72.8902C102.208 72.8403 102.412 72.6593 102.536 72.5407L102.629 72.4533C102.758 72.3222 102.882 72.1787 103 72.0351L103.061 71.9603C103.181 71.8206 103.29 71.6725 103.389 71.5171C103.417 71.4845 103.442 71.4489 103.463 71.411C103.556 71.2737 103.636 71.1364 103.717 70.9929C103.756 70.9305 103.791 70.8659 103.822 70.7994C103.884 70.6808 103.939 70.5622 103.995 70.4374C104.051 70.3126 104.082 70.2502 104.119 70.1503C104.156 70.0505 104.193 69.9506 104.23 69.8507C104.267 69.7509 104.31 69.6073 104.348 69.4825L104.422 69.1954C104.422 69.0706 104.477 68.9458 104.502 68.821C104.527 68.6961 104.539 68.59 104.552 68.4777L104.589 68.1656C104.589 68.0159 104.589 67.8661 104.589 67.7163C104.592 67.6685 104.592 67.6205 104.589 67.5727L104.626 67.5103Z" fill="#ED7339"/>
<path d="M176.37 33.334V47.3079H168.294V33.334C168.294 28.6781 166.372 26.3502 162.526 26.3502C158.68 26.3502 156.757 28.6781 156.757 33.334V47.3079H148.681V33.334C148.681 28.6781 146.76 26.3502 142.919 26.3502C139.077 26.3502 137.154 28.6781 137.15 33.334V47.3079H129.074V33.334C129.074 24.0098 133.689 19.3477 142.919 19.3477C147.16 19.3477 150.427 20.3317 152.719 22.2997C155.015 20.3317 158.284 19.3477 162.526 19.3477C171.755 19.3477 176.37 24.0098 176.37 33.334Z" fill="#ED7339"/>
<path d="M179.832 33.334C179.832 24.0098 185.215 19.3477 195.982 19.3477C206.749 19.3477 212.133 24.0035 212.133 33.3153C212.133 42.6354 206.749 47.2934 195.982 47.2892C185.215 47.2851 179.832 42.6333 179.832 33.334ZM195.982 26.3502C190.599 26.3502 187.907 28.6782 187.907 33.334C187.907 37.9899 190.599 40.32 195.982 40.3241C201.366 40.3241 204.057 37.9941 204.057 33.334C204.057 28.674 201.366 26.346 195.982 26.3502Z" fill="#ED7339"/>
<path d="M215.595 33.334C215.595 24.0098 220.979 19.3477 231.746 19.3477C242.513 19.3477 247.896 24.0035 247.896 33.3153C247.896 42.6354 242.513 47.2934 231.746 47.2892C220.979 47.2851 215.595 42.6333 215.595 33.334ZM231.746 26.3502C226.358 26.3502 223.666 28.6782 223.671 33.334C223.675 37.9899 226.366 40.32 231.746 40.3241C237.105 40.3241 239.784 37.9941 239.784 33.334C239.784 28.674 237.105 26.346 231.746 26.3502Z" fill="#ED7339"/>
<path d="M267.504 19.3477H274.429V26.3502H267.504C262.124 26.3502 259.432 28.6781 259.428 33.334V47.3079H251.353V33.334C251.353 24.0098 256.737 19.3477 267.504 19.3477Z" fill="#ED7339"/>
<path d="M294.036 19.3477H310.186V26.3502H294.036C290.239 26.3502 287.778 27.5152 286.653 29.8452H310.186V36.8228H286.653C287.778 39.1528 290.239 40.3179 294.036 40.3179H310.186V47.3079H294.036C283.273 47.3079 277.889 42.65 277.885 33.334C277.881 24.0181 283.265 19.356 294.036 19.3477Z" fill="#ED7339"/>
<path d="M143.036 57.7679H139.481C139.218 57.3174 138.836 56.9504 138.376 56.7088C137.917 56.4671 137.4 56.3605 136.884 56.4011C134.819 56.4011 133.44 57.8803 133.44 60.202C133.44 62.6984 134.837 64.1089 137.15 64.1089C137.867 64.1476 138.576 63.9388 139.161 63.5169C139.745 63.095 140.17 62.485 140.365 61.7872H136.284V59.3657H143.284V62.4113C142.865 63.7727 142.016 64.9584 140.867 65.7878C139.719 66.6171 138.333 67.0445 136.921 67.0048C132.97 67.0048 130.188 64.215 130.188 60.2269C130.188 56.2389 132.951 53.4241 136.902 53.4241C140.062 53.3991 142.362 55.0343 143.036 57.7679Z" fill="#3C2829"/>
<path d="M178.682 53.5552C181.916 53.5552 183.536 55.4275 183.536 57.7492C183.555 58.6337 183.274 59.4982 182.74 60.1997C182.206 60.9011 181.45 61.3974 180.599 61.6062L183.647 66.8862H180.018L177.272 61.8496H176.499V66.8862H173.284V53.5552H178.682ZM178.49 56.2513H176.499V59.5529H178.49C179.727 59.5529 180.259 58.9288 180.259 57.8803C180.259 56.8318 179.696 56.2513 178.49 56.2513Z" fill="#3C2829"/>
<path d="M220.004 67.0174C218.666 67.0186 217.358 66.6194 216.245 65.8702C215.132 65.121 214.264 64.0554 213.751 62.8083C213.238 61.5611 213.102 60.1884 213.362 58.8637C213.622 57.539 214.265 56.3218 215.21 55.3661C216.156 54.4103 217.36 53.7589 218.672 53.4942C219.984 53.2296 221.344 53.3635 222.581 53.8792C223.817 54.3948 224.875 55.269 225.619 56.3911C226.363 57.5132 226.761 58.833 226.762 60.1834C226.78 61.0847 226.617 61.9803 226.284 62.8166C225.951 63.653 225.454 64.4129 224.823 65.0509C224.192 65.6889 223.44 66.1919 222.612 66.5298C221.784 66.8677 220.897 67.0335 220.004 67.0174ZM220.004 64.0529C222.113 64.0529 223.485 62.5176 223.485 60.1834C223.485 57.8492 222.113 56.3076 220.004 56.3076C217.896 56.3076 216.504 57.8055 216.504 60.1834C216.504 62.5612 217.852 64.0529 220.004 64.0529Z" fill="#3C2829"/>
<path d="M256.701 53.5552H259.898V61.5313C259.898 63.1041 260.665 64.0278 262.192 64.0278C263.719 64.0278 264.523 63.1166 264.523 61.5313V53.5552H267.738V61.5126C267.738 65.1949 265.185 67.0173 262.136 67.0173C259.088 67.0173 256.677 65.1949 256.677 61.5126L256.701 53.5552Z" fill="#3C2829"/>
<path d="M303.447 62.0993H301.456V66.8862H298.234V53.5552H303.447C306.687 53.5552 308.3 55.4275 308.3 57.8428C308.3 60.046 306.816 62.0993 303.447 62.0993ZM303.181 59.5155C304.461 59.5155 305.005 58.8913 305.005 57.8428C305.005 56.7943 304.485 56.1702 303.181 56.1702H301.431V59.5092L303.181 59.5155Z" fill="#3C2829"/>
</svg>

<svg xmlns="http://www.w3.org/2000/svg" width="324" height="88" fill="none"  xmlns:v="https://vecta.io/nano"><path d="M73.116 51.021l3.722 1.617-3.184-5.505-1.169-2.035-1.608-2.784-1.608 2.784-1.175 2.035-2.121 3.663-1.057 1.841 3.716-1.617 2.245 4.475 2.238-4.475z" fill="#3c2829"/><path d="M104.626 67.51v-.686c0-.175-.05-.343-.081-.512 0-.056 0-.119-.031-.175 0-.156-.074-.312-.117-.462l-.062-.212-.142-.393-.099-.256-.161-.343-.142-.268-.049-.1-26.867-46.896c-.016-.02-.03-.041-.043-.062a6.64 6.64 0 0 0-.458-.693c-.167-.221-.346-.428-.538-.624l-.099-.1a6.46 6.46 0 0 0-.581-.512l-.056-.044a6.88 6.88 0 0 0-4.192-1.442 6.92 6.92 0 0 0-.884.062 6.87 6.87 0 0 0-3.259 1.348l-.093.075a6.7 6.7 0 0 0-.544.481l-.117.119a7.38 7.38 0 0 0-.507.58.24.24 0 0 0-.049.062 6.52 6.52 0 0 0-.458.68l-.043.069-14.741 25.776a6.99 6.99 0 0 0-.944 2.593 7.01 7.01 0 0 0 .13 2.759 6.98 6.98 0 0 0 1.184 2.49 6.91 6.91 0 0 0 2.051 1.828 6.85 6.85 0 0 0 2.595.878 6.83 6.83 0 0 0 2.729-.211 6.88 6.88 0 0 0 2.432-1.267 6.94 6.94 0 0 0 1.751-2.123l8.78-15.347 14.895 26.044H32.023l19.588-34.139a7.01 7.01 0 0 0 .688-5.277c-.473-1.781-1.628-3.3-3.21-4.222a6.83 6.83 0 0 0-5.228-.694 6.9 6.9 0 0 0-4.183 3.241L14.11 64.109s0 .056-.043.087-.111.225-.167.337l-.136.275c-.043.094-.093.243-.142.368l-.099.268-.105.387-.068.275-.068.393c-.019.131 0 .187-.043.281s0 .268 0 .399v.955c0 .081.037.325.062.487a1.46 1.46 0 0 0 0 .162l.111.512v.137l.155.493.062.162.179.431.105.206a3.72 3.72 0 0 0 .185.349l.161.268.173.256c.074.112.155.212.235.318l.161.193.284.318.167.162.322.293.204.169.309.231.297.193a2.76 2.76 0 0 0 .253.156 7.43 7.43 0 0 0 .736.368h.056a7.52 7.52 0 0 0 .717.25l.21.05a5.41 5.41 0 0 0 .618.125l.223.037a6.84 6.84 0 0 0 .798.05h77.754a6.65 6.65 0 0 0 .791-.05l.229-.037c.204 0 .408-.075.618-.125l.198-.05a6.48 6.48 0 0 0 .755-.262 6.97 6.97 0 0 0 .748-.368l.266-.162.272-.181c.116-.078.228-.163.334-.256l.166-.131.384-.349.093-.087c.129-.131.253-.275.371-.418l.061-.075a3.87 3.87 0 0 0 .328-.443.65.65 0 0 0 .074-.106l.254-.418a1.8 1.8 0 0 0 .105-.194l.173-.362.124-.287.111-.3.118-.368.074-.287c0-.125.055-.25.08-.374s.037-.231.05-.343l.037-.312v-.449c.003-.048.003-.096 0-.144l.037-.062zm71.744-34.176v13.974h-8.076V33.334c0-4.656-1.922-6.984-5.768-6.984s-5.769 2.328-5.769 6.984v13.974h-8.076V33.334c0-4.656-1.921-6.984-5.762-6.984s-5.765 2.328-5.769 6.984v13.974h-8.076V33.334c0-9.324 4.615-13.986 13.845-13.986 4.241 0 7.508.984 9.8 2.952 2.296-1.968 5.565-2.952 9.807-2.952 9.229 0 13.844 4.662 13.844 13.986zm3.462 0c0-9.324 5.383-13.986 16.15-13.986s16.151 4.656 16.151 13.968c0 9.32-5.384 13.978-16.151 13.974s-16.15-4.656-16.15-13.955zm16.15-6.984c-5.383 0-8.075 2.328-8.075 6.984s2.692 6.986 8.075 6.99 8.075-2.33 8.075-6.99-2.691-6.988-8.075-6.984zm19.613 6.984c0-9.324 5.384-13.986 16.151-13.986s16.15 4.656 16.15 13.968c0 9.32-5.383 13.978-16.15 13.974s-16.151-4.656-16.151-13.955zm16.151-6.984c-5.388 0-8.08 2.328-8.075 6.984s2.695 6.986 8.075 6.99c5.359 0 8.038-2.33 8.038-6.99s-2.679-6.988-8.038-6.984zm35.758-7.002h6.925v7.003h-6.925c-5.38 0-8.072 2.328-8.076 6.984v13.974h-8.075V33.334c0-9.324 5.384-13.986 16.151-13.986zm26.532 0h16.15v7.003h-16.15c-3.797 0-6.258 1.165-7.383 3.495h23.533v6.978h-23.533c1.125 2.33 3.586 3.495 7.383 3.495h16.15v6.99h-16.15c-10.763 0-16.147-4.658-16.151-13.974s5.38-13.978 16.151-13.986z" fill="#ed7339"/><path d="M143.036 57.768h-3.555a2.78 2.78 0 0 0-1.105-1.059 2.74 2.74 0 0 0-1.492-.308c-2.065 0-3.444 1.479-3.444 3.801 0 2.496 1.397 3.907 3.71 3.907.717.039 1.426-.17 2.011-.592a3.19 3.19 0 0 0 1.204-1.73h-4.081v-2.422h7v3.046c-.419 1.361-1.268 2.547-2.417 3.377a6.43 6.43 0 0 1-3.946 1.217c-3.951 0-6.733-2.79-6.733-6.778s2.763-6.803 6.714-6.803c3.16-.025 5.46 1.61 6.134 4.344zm35.646-4.213c3.234 0 4.854 1.872 4.854 4.194a3.91 3.91 0 0 1-.796 2.45 3.85 3.85 0 0 1-2.141 1.407l3.048 5.28h-3.629l-2.746-5.037h-.773v5.037h-3.215V53.555h5.398zm-.192 2.696h-1.991v3.302h1.991c1.237 0 1.769-.624 1.769-1.673s-.563-1.629-1.769-1.629zm41.514 10.766a6.72 6.72 0 0 1-3.759-1.147c-1.113-.749-1.981-1.815-2.494-3.062a6.89 6.89 0 0 1-.389-3.945 6.85 6.85 0 0 1 1.848-3.498 6.75 6.75 0 0 1 3.462-1.872 6.71 6.71 0 0 1 3.909.385 6.78 6.78 0 0 1 3.038 2.512c.744 1.122 1.142 2.442 1.143 3.792.018.901-.145 1.797-.478 2.633s-.83 1.596-1.461 2.234a6.64 6.64 0 0 1-2.211 1.479c-.828.338-1.715.504-2.608.488zm0-2.965c2.109 0 3.481-1.535 3.481-3.869s-1.372-3.876-3.481-3.876-3.5 1.498-3.5 3.876 1.348 3.869 3.5 3.869zm36.697-10.497h3.197v7.976c0 1.573.767 2.496 2.294 2.496s2.331-.911 2.331-2.496v-7.976h3.215v7.957c0 3.682-2.553 5.505-5.602 5.505s-5.459-1.822-5.459-5.505l.024-7.957zm46.746 8.544h-1.991v4.787h-3.222V53.555h5.213c3.24 0 4.853 1.872 4.853 4.288 0 2.203-1.484 4.257-4.853 4.257zm-.266-2.584c1.28 0 1.824-.624 1.824-1.673s-.52-1.673-1.824-1.673h-1.75v3.339l1.75.006z" fill="#3c2829"/></svg>
